/* XPM */
static char *cac46f56c05f459d9e4f81a51dd9f35fDIVbsSJZRCxUmzo8[] = {
/* columns rows colors chars-per-pixel */
"64 64 93 2 ",
"   c #2F4264",
".  c #314466",
"X  c #354967",
"o  c #334669",
"O  c #364A6B",
"+  c #394D6D",
"@  c #3D536C",
"#  c #3B4E71",
"$  c #3D5273",
"%  c #41586F",
"&  c #415575",
"*  c #445A74",
"=  c #425679",
"-  c #445A7B",
";  c #495E7D",
":  c #47607F",
">  c #4A617E",
",  c #495E80",
"<  c #4D6384",
"1  c #4E6886",
"2  c #4F6788",
"3  c #4F6888",
"4  c #516686",
"5  c #516887",
"6  c #516789",
"7  c #52698A",
"8  c #586E8D",
"9  c #57708E",
"0  c #58708F",
"q  c #576F90",
"w  c #586F90",
"e  c #5B7493",
"r  c #5D7896",
"t  c #5F7A99",
"y  c #607695",
"u  c #627996",
"i  c #637C9A",
"p  c #697F9C",
"a  c #65819E",
"s  c #69819D",
"d  c #68829F",
"f  c #6B829F",
"g  c #6782A0",
"h  c #6684A1",
"j  c #6883A0",
"k  c #6B85A1",
"l  c #6985A2",
"z  c #6F87A3",
"x  c #6B88A4",
"c  c #6F89A5",
"v  c #6D8BA6",
"b  c #6F8DA8",
"n  c #7087A4",
"m  c #738AA7",
"M  c #748AA7",
"N  c #738CA7",
"B  c #758CA7",
"V  c #728BA8",
"C  c #748BA8",
"Z  c #718FAA",
"A  c #778FAA",
"S  c #798EAA",
"D  c #7791AB",
"F  c #7492AC",
"G  c #7794AE",
"H  c #7A93AE",
"J  c #7C93AD",
"K  c #7B95AF",
"L  c #7794B0",
"P  c #7B97B1",
"I  c #7D97B1",
"U  c #7B98B1",
"Y  c #7E9AB3",
"T  c #7D9AB4",
"R  c #809AB4",
"E  c #829BB5",
"W  c #819CB6",
"Q  c #849DB7",
"!  c #849EB6",
"~  c #879FB9",
"^  c #889FB9",
"/  c #86A1B9",
"(  c #87A3BB",
")  c #8BA4BC",
"_  c #8CA5BE",
"`  c #8DA8BF",
"'  c #8DA7C1",
"]  c #8EA9C1",
"[  c #92ACC4",
"{  c #96B0C7",
"}  c #97B2C8",
"|  c #98B4CA",
" . c white",
/* pixels */
". O $ $ $ $ $ $ # # # # # o . o $ $ $ $ $ $ # # # # # O . . $ $ $ $ $ $ $ # # # # # . . # $ $ $ $ $ $ # # # # # . . + $ $ $ $ $ ",
"O z _ ~ I m V m g g g h g 4 O u _ ~ R N m V j g g g g 9 O 7 ) ~ W A V V l a s s a u + ; ~ ^ ! F V V z a a a g a $ $ H ) ~ K V C ",
"$ { P s e 6 6 6 6 6 6 7 6 6 $ ` T l e 7 6 6 6 6 6 6 6 7 $ ! W m t 7 6 6 6 6 6 6 6 7 - n / F u 7 6 6 6 7 7 7 7 6 < 8 ] G i 0 6 6 ",
"# W i 7 7 7 7 7 7 7 7 7 7 4 $ K a 7 7 7 7 7 7 7 7 7 7 7 $ N v 7 7 7 7 7 7 7 7 7 7 7 - u F 9 7 6 6 7 7 7 7 7 7 7 < 1 U e 7 7 7 7 ",
"# Z e 7 7 7 7 7 7 7 7 7 4 * + x t 7 7 7 7 7 7 7 7 7 6 ; O a a 6 7 7 7 7 7 7 7 7 7 > + 9 l 7 7 6 6 7 7 7 7 7 7 < @ > v 8 7 7 7 7 ",
"O 7 7 7 7 7 7 7 7 7 7 > * @ O 1 7 7 7 7 7 7 7 7 7 < ; @ o < 7 7 7 7 7 7 7 7 7 < ; % O - 7 6 7 7 7 7 7 7 7 1 ; * O $ 7 7 7 7 7 7 ",
"o O $ $ # + + # $ $ $ O O o . o $ $ $ # + + $ $ $ + O O o o # $ $ # # # $ $ $ + O O o o # $ $ $ # + # $ $ + O O o o O $ $ $ # # ",
"a a a a e o . - H H D m M V l a a a a e . + A H H B m V l a a a a i o O s J H A M M z a a a a i $ o e J H A m m v a a a a a - o ",
"7 7 7 7 7 = . / ) H l 7 7 7 7 7 7 7 7 7 $ H ] I z 0 7 7 7 7 7 7 7 7 , e [ Y m e 7 7 7 7 7 7 7 7 < 1 [ W m t 7 7 7 7 7 7 7 7 7 $ ",
"7 7 7 7 7 - . I v 0 6 6 7 7 7 7 7 7 7 7 $ M F e 6 6 7 7 7 7 7 7 7 7 , 0 U t 7 7 7 7 7 7 7 7 7 7 1 < W a 7 6 7 7 7 7 7 7 7 7 7 # ",
"7 7 7 6 < + . l h 5 7 7 7 7 7 7 7 7 7 < O u b 7 7 7 7 7 7 7 7 7 7 4 $ 1 F 8 7 7 7 7 7 7 7 7 7 6 * - F e 6 6 7 7 7 7 7 7 7 7 ; + ",
"6 6 4 < % O . r 7 6 6 6 6 6 6 6 6 1 < % X e 7 7 7 7 7 6 6 6 6 6 1 * + : e 7 6 6 6 6 6 6 6 6 1 * @ & e 7 6 6 6 6 6 6 6 6 1 ; @ O ",
"- - $ + O   . . - - - - - - - - - $ + O     = - - - - - - - - $ + +     $ - - - - - - - - & + + .   + - - - - - - - - - + + . . ",
"  - u u u u u u 9 8 8 8 8 &   $ u u u u u u 8 8 8 8 8 ;   o e u u u u u e 8 8 8 8 3     8 u u u u u e 8 8 8 8 8 o . < u u u u u ",
"# _ ) R v e e e e e e e w 6 $ R _ R Z e e e e e e e e 7 # B ] R F u e e e e e e e 8 & y ] ! P p e e e e e e e e ; 1 ] / I l e e ",
"$ ` v e 7 7 7 7 7 7 7 7 7 6 $ / F e 7 7 7 7 7 7 7 7 7 7 $ I F i 7 7 7 7 7 6 7 7 7 7 - s U a 7 7 7 7 7 7 7 7 7 7 < 7 / x 8 7 7 7 ",
"# P t 7 7 7 7 7 7 7 7 7 7 < $ Z a 7 7 7 7 7 7 7 6 6 7 1 + z x 6 7 7 7 7 7 7 7 7 7 4 $ e F 7 7 7 7 7 7 7 7 7 7 6 - < G e 7 7 7 7 ",
"+ l 8 7 7 7 7 7 7 7 7 4 < * + a 9 6 6 6 6 6 6 6 6 6 1 * X i e 7 7 7 6 6 6 6 7 6 6 * + 7 t 7 6 7 6 6 6 6 6 6 6 ; @ ; a 7 6 6 6 6 ",
". & < < < 1 1 1 < 1 < & & + . $ < 1 1 1 1 1 1 1 1 * & + . + < < 1 < < < 1 1 < - & @ . O , < 1 < 1 1 1 1 < ; & @ o o - 1 1 < 1 1 ",
"- - - - $ . . o ; ; ; ; ; , - - - - - $ .   - ; ; ; ; ; - - - - - - .   $ ; ; ; ; ; ; - - - - - o   # ; ; ; ; ; ; - - - - - O . ",
"i i i i e # . i _ ~ T z j j i i i i i e O 8 ' ^ W v l l p i i i i t $ ; ~ / ~ Z j j a i i i i t - & I / ! D s j s i i i i i < O ",
"6 6 6 6 7 - . / U l e 7 6 6 7 6 6 6 6 7 $ I T v e 7 6 6 7 7 7 7 7 6 , e ) Z e 8 6 6 6 7 7 7 7 7 < 4 ' K u 8 6 6 6 6 6 6 6 6 7 $ ",
"7 7 7 7 6 & . A l 7 7 7 7 7 7 7 7 7 7 7 $ l Z 7 7 7 7 7 7 7 7 7 7 6 ; 7 G 0 7 7 7 7 7 7 7 7 7 7 < ; U e 7 7 7 7 7 7 7 7 7 7 6 + ",
"7 7 7 6 > + . a u 7 7 7 7 7 7 7 7 7 6 ; O u a 7 7 7 7 7 7 7 7 7 7 > @ 1 l 8 7 7 7 7 7 7 7 7 7 < & - v 0 7 7 7 7 7 7 7 7 7 1 * O ",
"6 6 < - @ . . < 6 7 7 6 6 6 6 6 5 > - @ o - 4 6 7 7 7 7 7 7 5 < ; % O $ 4 5 7 7 7 6 6 7 7 1 ; * + + 1 6 6 7 6 6 6 7 7 6 ; * + o ",
"O # $ + + O O O $ $ $ $ $ # + # $ $ + + O O $ $ $ $ $ # O O $ $ + + O O # $ $ $ $ $ + + $ $ + + O O # $ $ $ $ $ + O $ $ + + O O ",
"o e R I H m m m a a a a a < o 4 R I H M M m a a a a a 7 . - I I K V m m l a a a a t o $ S I I A m m l a a a a i + + s R I F V m ",
"$ { W m u 7 7 7 7 7 7 7 7 6 $ _ / Z p 7 6 7 7 7 7 7 7 7 $ ! / D a 8 7 7 7 7 7 7 7 7 - z _ P l 0 7 7 7 7 7 7 7 7 < 7 [ Y z e 7 7 ",
"$ / a 7 7 7 7 7 7 7 7 7 7 6 $ Y l 8 7 7 7 7 7 7 7 7 7 7 $ D b 0 7 7 7 7 7 7 7 7 6 7 - i G e 7 7 7 7 7 7 7 7 7 7 < 4 T u 7 7 7 7 ",
"# F e 7 7 7 7 7 7 7 7 7 6 ; + v i 7 7 7 7 7 7 7 7 7 6 < O a l 7 7 7 7 7 7 7 7 7 6 1 + 9 b 7 7 6 7 7 7 7 7 7 7 4 & > F e 7 7 7 7 ",
"+ t 7 7 7 7 7 7 7 7 7 < > @ O e 7 7 7 7 7 7 7 7 7 1 > @ O 8 7 7 7 7 7 7 7 7 7 1 < % O < 8 7 7 7 7 7 7 7 7 6 < * + - e 7 7 7 7 7 ",
"  o & & & = = = $ $ & O O .   . $ $ $ & = = $ $ $ + X .     & = & & = = = & & + X O     $ & $ $ = = & $ $ $ X O     + $ $ $ & = ",
"t t t t 7 . . + p s s j j s t t t t e 7 .   i s s s l s i t t t e e . . 8 s s s s s p e e e e e + . < s s s s j s t t e e t $ . ",
"8 8 8 8 7 & . R ] R F e 8 8 8 8 8 8 8 7 $ m [ R D e 8 8 8 8 8 8 8 8 - 0 [ ! K i 8 8 8 8 8 8 8 8 < < [ / I s 8 8 8 8 8 8 8 8 6 + ",
"7 7 7 7 7 = . R Z e 7 7 7 7 7 7 7 7 7 7 $ A F i 7 7 7 7 7 7 7 7 7 7 , e Y a 7 7 7 7 7 7 7 7 7 7 < < ! l 7 7 7 7 7 7 7 7 7 7 7 # ",
"7 6 6 7 1 $ . v h 4 7 7 7 7 7 7 7 7 7 1 @ i b 7 7 7 7 7 7 7 7 7 7 2 & 4 F 8 7 7 7 7 7 7 7 7 7 6 - - F e 7 7 7 7 7 7 7 7 7 7 < + ",
"7 7 6 1 * O . i e 7 7 7 7 7 7 7 7 6 1 * O e e 7 7 7 7 6 6 6 7 6 4 * @ < i 7 7 7 7 7 7 7 7 6 4 ; @ = i 7 7 7 7 7 7 7 7 7 6 > % O ",
", , & @ + . . O , < < < < < < < < & @ + . o ; < < < < < , , < - @ @ . o - , , , < < < < < ; @ @ . . $ , , < < < < < < ; $ @ X . ",
"  # 4 4 6 6 6 4 < < < < < $ . O 4 4 4 4 4 4 < < < < < =     1 4 4 6 6 4 1 < < < < ; .   ; 6 4 4 4 4 1 < < < < < o   & 4 4 6 4 6 ",
"# R ) ! D i i i t t e e e 4 + B ' ~ P i i i e t t t t 8 O i [ ~ Y s i i u t t t t e $ 7 _ ~ R z p p u t t t t e - ; ~ / W m i p ",
"$ [ F e 8 7 7 6 7 7 7 7 7 7 $ ) G i 8 7 7 7 7 7 7 7 7 7 $ R P l 8 7 7 7 7 7 7 7 7 6 - z T v 0 7 7 7 7 7 7 7 7 7 < 7 ) Z e 7 7 7 ",
"$ Y t 7 7 6 7 7 6 6 7 7 7 4 $ F a 7 7 7 7 7 7 7 7 7 7 4 $ m v 7 7 7 7 7 7 7 7 7 6 6 = y F 7 7 7 7 7 7 7 7 7 7 7 ; < P e 7 7 7 7 ",
"# b e 6 7 7 7 7 6 6 6 7 1 * + l e 6 7 7 7 7 7 7 7 7 4 * X i i 7 7 7 7 7 7 7 7 7 6 ; + 8 a 7 7 7 7 7 7 7 7 7 7 > @ < x 8 7 7 7 7 ",
"o < 6 6 6 6 6 6 6 6 4 - * + . ; 6 6 6 6 6 6 6 6 6 ; * @ . - 6 6 6 6 6 6 6 6 6 > * @ . $ 1 4 6 6 6 6 6 6 6 < * % X + < 6 6 7 7 6 ",
"O + $ $ # o O O $ $ $ $ $ # + + $ $ $ + O o $ $ $ $ $ # + + $ $ $ $ O O # $ $ $ $ # + + $ $ $ $ O O + $ $ $ $ $ # O # $ $ $ O O ",
"g g g g r O . 4 ~ R Y A A A l g g a g e o - R R R D A A v g g j s i + $ A ! R H A A m g g h h a $ + s ! R K A A m a a a a l ; o ",
"6 6 6 6 7 = . ) / Z i 7 6 6 6 6 6 6 6 7 $ I / F p 8 6 6 6 6 6 6 6 6 , y ] P s e 6 6 6 6 6 6 6 6 1 4 [ Y l r 6 6 6 6 6 6 6 6 7 $ ",
"7 7 7 7 7 & . K v 8 6 7 7 7 7 7 7 7 7 7 $ m Z e 6 7 7 7 7 7 7 7 7 7 ; 8 P r 7 6 7 7 7 7 7 7 7 6 < < Y i 7 6 7 7 7 7 7 7 7 7 7 + ",
"7 7 7 6 > + . l i 6 7 7 7 7 7 7 7 7 6 > O u z 7 7 7 7 7 7 7 7 7 7 < $ 1 b 8 7 7 7 7 7 7 7 7 7 1 * - Z e 7 7 7 7 7 7 7 7 7 4 - O ",
"7 7 1 > % X . 7 7 7 7 7 7 7 7 7 7 < > @ o < 7 7 7 7 7 7 7 7 7 1 > * O - 8 7 7 7 7 7 7 7 7 6 > * + $ 8 7 7 7 7 7 7 7 7 7 < * @ X ",
"$ $ O X .       # $ $ $ $ $ $ $ $ O X .     # $ $ $ $ $ $ $ $ + X X     O $ $ $ $ $ $ $ $ # X X     O # $ $ $ $ $ $ $ # O X     ",
". > A M C m m m a a a a i ; . & M m m M C V a a a a a 7 . O n M m V M m s a a a a e . . p C B m m m l a a a a i O . 8 A M m m m ",
"& | / I j 7 7 7 7 7 7 7 7 7 & ' ' I v 7 7 7 7 7 7 7 7 7 $ R [ R A 8 7 7 7 7 7 7 7 7 - l [ R F e 7 7 7 7 7 7 7 7 < 7 } ~ H i 7 7 ",
"$ ) l 8 6 7 7 7 7 7 7 7 7 7 $ W x 0 6 7 7 7 7 7 7 7 7 7 $ K Z e 2 7 7 7 7 7 7 7 7 7 - s G i 2 4 7 7 7 7 7 7 7 7 < 7 W a 7 7 7 7 ",
"# G e 6 7 7 7 7 7 7 7 7 7 > # Z a 6 6 7 7 7 7 7 7 7 7 < + s x 6 7 7 7 7 7 7 7 7 7 1 $ e Z 7 6 7 7 7 7 7 7 7 7 6 & < F e 7 7 7 7 ",
"# a 7 6 7 7 7 7 7 7 7 4 > % + i 7 7 7 7 7 7 7 7 7 4 < * O t 9 7 7 7 7 7 7 7 7 4 1 * + 7 e 7 7 7 7 7 7 7 7 6 4 * @ ; u 7 7 7 7 7 ",
". + , , , , , , , , , @ @ X   O ; ; , , , , , , , $ @ O   o ; ; , , , , , , , & @ +   . - ; , ; , , , , , - @ @ . . $ ; ; ; , , ",
"1 1 1 1 ; . . o 7 8 8 8 8 8 7 1 1 1 1 ;     6 7 7 8 8 8 7 1 1 1 1 <   . , 7 7 8 8 8 7 1 1 1 1 1 O   & 7 7 7 8 8 7 1 1 1 1 1 + . ",
"e e e e w $ . m ' ! P i u u e e e e e q # u ] ! Y s u u t e e e e e = 4 ) / R z u u u e e e e e ; - ~ / R N u u u e e e e e 1 + ",
"6 6 6 6 7 - . ~ L i 8 7 6 6 7 6 6 6 6 7 $ J P l 8 7 6 6 6 6 6 6 6 6 , e / v e 7 6 6 6 6 6 6 6 6 < 1 ) Z e 8 6 6 6 6 7 7 6 6 7 $ ",
"7 7 7 7 6 & . N h 7 7 7 7 7 7 7 7 7 7 6 $ s b 7 7 7 7 7 7 7 7 7 7 7 - 7 F 9 7 7 7 7 7 7 7 7 7 7 < ; P e 7 7 7 7 7 7 7 7 7 7 1 + ",
"7 7 7 5 * + . a e 6 7 7 7 7 7 7 7 7 6 * X i u 7 7 7 7 7 7 7 7 7 7 ; @ 1 s 7 7 7 7 7 7 7 7 7 7 > @ - l 8 7 7 7 7 7 7 7 7 7 < * O ",
"7 7 > * @ . . $ 6 7 7 7 7 7 7 7 7 ; * @ . # 1 6 7 7 7 7 7 7 7 < * % . O < 7 7 7 7 7 7 7 7 1 * & X o ; 7 7 7 7 7 7 7 7 6 * * + . ",
" 7 7 7 5 * + . a e 6 7 7 7 7 7 7 7 7 6 * X i u 7 7 7 7 7 7 7 7 7 7 ; @ 1 s 7 7 7 7 7 7 7 7 7 7 > @ - l 8 7 7 7 7 7 7 7 7 7 < * O "
};
